src/assets/groupData2.svg

<svg width="399" height="20" viewBox="0 0 399 20" fill="none" xmlns="http://www.w3.org/2000/svg">
<g clip-path="url(#clip0_1_931)">
<path d="M300 1.66675C296.775 1.66675 294.167 4.27508 294.167 7.50008C294.167 11.8751 300 18.3334 300 18.3334C300 18.3334 305.833 11.8751 305.833 7.50008C305.833 4.27508 303.225 1.66675 300 1.66675ZM295.833 7.50008C295.833 5.20008 297.7 3.33342 300 3.33342C302.3 3.33342 304.167 5.20008 304.167 7.50008C304.167 9.90008 301.767 13.4918 300 15.7334C298.267 13.5084 295.833 9.87508 295.833 7.50008Z" fill="black"/>
<path d="M300 9.58341C301.151 9.58341 302.083 8.65067 302.083 7.50008C302.083 6.34949 301.151 5.41675 300 5.41675C298.849 5.41675 297.917 6.34949 297.917 7.50008C297.917 8.65067 298.849 9.58341 300 9.58341Z" fill="black"/>
</g>
<path d="M321.53 15H323.42V4.53H321.8V12.54H321.755L320.6 10.32L317.18 4.53H315.29V15H316.91V6.99H316.955L318.11 9.21L321.53 15ZM328.938 15.18C331.113 15.18 332.523 13.59 332.523 11.1C332.523 8.61 331.113 7.02 328.938 7.02C326.763 7.02 325.353 8.61 325.353 11.1C325.353 13.59 326.763 15.18 328.938 15.18ZM328.938 13.83C327.828 13.83 327.078 13.14 327.078 11.76V10.44C327.078 9.06 327.828 8.37 328.938 8.37C330.048 8.37 330.798 9.06 330.798 10.44V11.76C330.798 13.14 330.048 13.83 328.938 13.83ZM335.17 5.805C335.845 5.805 336.13 5.445 336.13 4.95V4.695C336.13 4.2 335.845 3.84 335.17 3.84C334.495 3.84 334.195 4.2 334.195 4.695V4.95C334.195 5.445 334.495 5.805 335.17 5.805ZM334.345 15H335.98V7.2H334.345V15ZM343.22 15H344.855V3.9H343.22V8.49H343.145C342.815 7.56 341.99 7.02 340.955 7.02C338.99 7.02 337.85 8.535 337.85 11.1C337.85 13.665 338.99 15.18 340.955 15.18C341.99 15.18 342.815 14.625 343.145 13.71H343.22V15ZM341.45 13.77C340.325 13.77 339.575 12.975 339.575 11.775V10.425C339.575 9.225 340.325 8.43 341.45 8.43C342.44 8.43 343.22 8.97 343.22 9.765V12.435C343.22 13.23 342.44 13.77 341.45 13.77ZM353.821 15V13.665H352.996V9.75C352.996 8.01 351.871 7.02 349.861 7.02C348.346 7.02 347.431 7.665 346.921 8.535L347.896 9.42C348.286 8.805 348.841 8.355 349.756 8.355C350.851 8.355 351.361 8.91 351.361 9.855V10.515H349.951C347.776 10.515 346.621 11.31 346.621 12.855C346.621 14.265 347.536 15.18 349.141 15.18C350.281 15.18 351.121 14.67 351.421 13.695H351.496C351.601 14.46 352.051 15 352.906 15H353.821ZM349.606 13.935C348.796 13.935 348.286 13.575 348.286 12.885V12.615C348.286 11.94 348.841 11.565 349.981 11.565H351.361V12.69C351.361 13.455 350.611 13.935 349.606 13.935ZM356.575 12.915C355.84 12.915 355.48 13.335 355.48 13.935V14.175C355.48 14.655 355.735 15.03 356.26 15.135C356.05 15.87 355.63 16.425 354.985 17.07H356.2C357.1 16.335 357.67 15.15 357.67 14.175V13.935C357.67 13.335 357.31 12.915 356.575 12.915ZM367.696 15V13.62H366.256V5.91H367.696V4.53H363.136V5.91H364.561V13.62H363.136V15H367.696ZM371.341 15V9.78C371.341 8.865 372.181 8.43 373.036 8.43C374.041 8.43 374.506 9.045 374.506 10.26V15H376.141V10.05C376.141 8.13 375.196 7.02 373.606 7.02C372.406 7.02 371.746 7.65 371.416 8.49H371.341V7.2H369.706V15H371.341ZM383.312 15H384.947V3.9H383.312V8.49H383.237C382.907 7.56 382.082 7.02 381.047 7.02C379.082 7.02 377.942 8.535 377.942 11.1C377.942 13.665 379.082 15.18 381.047 15.18C382.082 15.18 382.907 14.625 383.237 13.71H383.312V15ZM381.542 13.77C380.417 13.77 379.667 12.975 379.667 11.775V10.425C379.667 9.225 380.417 8.43 381.542 8.43C382.532 8.43 383.312 8.97 383.312 9.765V12.435C383.312 13.23 382.532 13.77 381.542 13.77ZM388.109 5.805C388.784 5.805 389.069 5.445 389.069 4.95V4.695C389.069 4.2 388.784 3.84 388.109 3.84C387.434 3.84 387.134 4.2 387.134 4.695V4.95C387.134 5.445 387.434 5.805 388.109 5.805ZM387.284 15H388.919V7.2H387.284V15ZM397.884 15V13.665H397.059V9.75C397.059 8.01 395.934 7.02 393.924 7.02C392.409 7.02 391.494 7.665 390.984 8.535L391.959 9.42C392.349 8.805 392.904 8.355 393.819 8.355C394.914 8.355 395.424 8.91 395.424 9.855V10.515H394.014C391.839 10.515 390.684 11.31 390.684 12.855C390.684 14.265 391.599 15.18 393.204 15.18C394.344 15.18 395.184 14.67 395.484 13.695H395.559C395.664 14.46 396.114 15 396.969 15H397.884ZM393.669 13.935C392.859 13.935 392.349 13.575 392.349 12.885V12.615C392.349 11.94 392.904 11.565 394.044 11.565H395.424V12.69C395.424 13.455 394.674 13.935 393.669 13.935Z" fill="black"/>
<path d="M29.4 15V13.62H27.96V5.91H29.4V4.53H24.84V5.91H26.265V13.62H24.84V15H29.4ZM33.0452 15V9.78C33.0452 8.865 33.8852 8.43 34.7402 8.43C35.7452 8.43 36.2102 9.045 36.2102 10.26V15H37.8452V10.05C37.8452 8.13 36.9002 7.02 35.3102 7.02C34.1102 7.02 33.4502 7.65 33.1202 8.49H33.0452V7.2H31.4102V15H33.0452ZM41.7464 15V9.78C41.7464 8.865 42.5864 8.43 43.4414 8.43C44.4464 8.43 44.9114 9.045 44.9114 10.26V15H46.5464V10.05C46.5464 8.13 45.6014 7.02 44.0114 7.02C42.8114 7.02 42.1514 7.65 41.8214 8.49H41.7464V7.2H40.1114V15H41.7464ZM51.8726 15.18C54.0476 15.18 55.4576 13.59 55.4576 11.1C55.4576 8.61 54.0476 7.02 51.8726 7.02C49.6976 7.02 48.2876 8.61 48.2876 11.1C48.2876 13.59 49.6976 15.18 51.8726 15.18ZM51.8726 13.83C50.7626 13.83 50.0126 13.14 50.0126 11.76V10.44C50.0126 9.06 50.7626 8.37 51.8726 8.37C52.9826 8.37 53.7326 9.06 53.7326 10.44V11.76C53.7326 13.14 52.9826 13.83 51.8726 13.83ZM60.7772 15L63.4622 7.2H61.9022L60.6872 10.755L59.8922 13.485H59.8022L59.0072 10.755L57.8222 7.2H56.2022L58.8572 15H60.7772ZM71.3361 15V13.665H70.5111V9.75C70.5111 8.01 69.3861 7.02 67.3761 7.02C65.8611 7.02 64.9461 7.665 64.4361 8.535L65.4111 9.42C65.8011 8.805 66.3561 8.355 67.2711 8.355C68.3661 8.355 68.8761 8.91 68.8761 9.855V10.515H67.4661C65.2911 10.515 64.1361 11.31 64.1361 12.855C64.1361 14.265 65.0511 15.18 66.6561 15.18C67.7961 15.18 68.6361 14.67 68.9361 13.695H69.0111C69.1161 14.46 69.5661 15 70.4211 15H71.3361ZM67.1211 13.935C66.3111 13.935 65.8011 13.575 65.8011 12.885V12.615C65.8011 11.94 66.3561 11.565 67.4961 11.565H68.8761V12.69C68.8761 13.455 68.1261 13.935 67.1211 13.935ZM75.9536 15.18C77.4536 15.18 78.5186 14.475 79.0286 13.2L77.7836 12.54C77.4536 13.32 76.8986 13.83 75.9536 13.83C74.7536 13.83 74.1386 13.005 74.1386 11.805V10.41C74.1386 9.21 74.7536 8.385 75.9536 8.385C76.8386 8.385 77.3936 8.85 77.6186 9.57L78.9686 8.94C78.5036 7.785 77.5136 7.02 75.9536 7.02C73.7036 7.02 72.4136 8.61 72.4136 11.1C72.4136 13.59 73.7036 15.18 75.9536 15.18ZM83.5121 15.18C85.0121 15.18 86.0771 14.475 86.5871 13.2L85.3421 12.54C85.0121 13.32 84.4571 13.83 83.5121 13.83C82.3121 13.83 81.6971 13.005 81.6971 11.805V10.41C81.6971 9.21 82.3121 8.385 83.5121 8.385C84.3971 8.385 84.9521 8.85 85.1771 9.57L86.5271 8.94C86.0621 7.785 85.0721 7.02 83.5121 7.02C81.2621 7.02 79.9721 8.61 79.9721 11.1C79.9721 13.59 81.2621 15.18 83.5121 15.18ZM91.1157 15.18C92.5707 15.18 93.7107 14.55 94.2957 13.605L93.3357 12.66C92.8857 13.38 92.2407 13.83 91.2807 13.83C89.9607 13.83 89.2257 12.975 89.2257 11.775V11.52H94.5807V10.905C94.5807 8.745 93.4107 7.02 91.1157 7.02C88.8957 7.02 87.5307 8.61 87.5307 11.1C87.5307 13.59 88.8957 15.18 91.1157 15.18ZM91.1157 8.295C92.1957 8.295 92.8557 9.09 92.8557 10.29V10.44H89.2257V10.335C89.2257 9.135 89.9907 8.295 91.1157 8.295ZM98.0257 15V10.02C98.0257 9.21 98.7457 8.775 100.036 8.775H100.681V7.2H100.246C99.0007 7.2 98.3257 7.905 98.1007 8.7H98.0257V7.2H96.3907V15H98.0257ZM114.108 15L110.538 4.53H108.408L104.838 15H106.563L107.478 12.165H111.393L112.338 15H114.108ZM110.973 10.71H107.883L109.398 6.09H109.473L110.973 10.71ZM117.244 15V9.78C117.244 8.865 118.084 8.43 118.939 8.43C119.944 8.43 120.409 9.045 120.409 10.26V15H122.044V10.05C122.044 8.13 121.099 7.02 119.509 7.02C118.309 7.02 117.649 7.65 117.319 8.49H117.244V7.2H115.609V15H117.244ZM130.941 15V13.665H130.116V9.75C130.116 8.01 128.991 7.02 126.981 7.02C125.466 7.02 124.551 7.665 124.041 8.535L125.016 9.42C125.406 8.805 125.961 8.355 126.876 8.355C127.971 8.355 128.481 8.91 128.481 9.855V10.515H127.071C124.896 10.515 123.741 11.31 123.741 12.855C123.741 14.265 124.656 15.18 126.261 15.18C127.401 15.18 128.241 14.67 128.541 13.695H128.616C128.721 14.46 129.171 15 130.026 15H130.941ZM126.726 13.935C125.916 13.935 125.406 13.575 125.406 12.885V12.615C125.406 11.94 125.961 11.565 127.101 11.565H128.481V12.69C128.481 13.455 127.731 13.935 126.726 13.935ZM135.258 15V13.665H134.178V3.9H132.543V13.38C132.543 14.385 133.098 15 134.208 15H135.258ZM139.928 11.79L139.433 13.485H139.358L138.908 11.79L137.348 7.2H135.713L138.548 15.345L138.098 16.665H136.778V18H137.723C138.938 18 139.403 17.595 139.778 16.545L143.063 7.2H141.488L139.928 11.79ZM147.993 15V13.665H146.478V8.535H148.113V7.2H146.478V5.07H145.008V6.435C145.008 6.975 144.828 7.2 144.288 7.2H143.628V8.535H144.843V13.305C144.843 14.37 145.443 15 146.568 15H147.993ZM150.712 5.805C151.387 5.805 151.672 5.445 151.672 4.95V4.695C151.672 4.2 151.387 3.84 150.712 3.84C150.037 3.84 149.737 4.2 149.737 4.695V4.95C149.737 5.445 150.037 5.805 150.712 5.805ZM149.887 15H151.522V7.2H149.887V15ZM156.872 15.18C158.372 15.18 159.437 14.475 159.947 13.2L158.702 12.54C158.372 13.32 157.817 13.83 156.872 13.83C155.672 13.83 155.057 13.005 155.057 11.805V10.41C155.057 9.21 155.672 8.385 156.872 8.385C157.757 8.385 158.312 8.85 158.537 9.57L159.887 8.94C159.422 7.785 158.432 7.02 156.872 7.02C154.622 7.02 153.332 8.61 153.332 11.1C153.332 13.59 154.622 15.18 156.872 15.18ZM163.978 15.18C165.853 15.18 167.068 14.175 167.068 12.675C167.068 11.415 166.303 10.665 164.593 10.41L163.873 10.32C163.048 10.185 162.673 9.915 162.673 9.315C162.673 8.73 163.093 8.34 163.993 8.34C164.833 8.34 165.493 8.745 165.898 9.225L166.903 8.265C166.198 7.485 165.403 7.02 163.993 7.02C162.283 7.02 161.098 7.905 161.098 9.42C161.098 10.86 162.073 11.55 163.663 11.745L164.383 11.835C165.193 11.94 165.493 12.315 165.493 12.81C165.493 13.47 165.013 13.86 164.068 13.86C163.138 13.86 162.433 13.44 161.863 12.75L160.813 13.71C161.548 14.625 162.508 15.18 163.978 15.18ZM174.275 15V10.83H177.08C179 10.83 180.125 9.585 180.125 7.68C180.125 5.775 179 4.53 177.08 4.53H172.58V15H174.275ZM174.275 6.015H176.975C177.83 6.015 178.34 6.48 178.34 7.32V8.04C178.34 8.88 177.83 9.345 176.975 9.345H174.275V6.015ZM183.353 15V10.02C183.353 9.21 184.073 8.775 185.363 8.775H186.008V7.2H185.573C184.328 7.2 183.653 7.905 183.428 8.7H183.353V7.2H181.718V15H183.353ZM188.285 5.805C188.96 5.805 189.245 5.445 189.245 4.95V4.695C189.245 4.2 188.96 3.84 188.285 3.84C187.61 3.84 187.31 4.2 187.31 4.695V4.95C187.31 5.445 187.61 5.805 188.285 5.805ZM187.46 15H189.095V7.2H187.46V15ZM195.045 15L197.73 7.2H196.17L194.955 10.755L194.16 13.485H194.07L193.275 10.755L192.09 7.2H190.47L193.125 15H195.045ZM205.604 15V13.665H204.779V9.75C204.779 8.01 203.654 7.02 201.644 7.02C200.129 7.02 199.214 7.665 198.704 8.535L199.679 9.42C200.069 8.805 200.624 8.355 201.539 8.355C202.634 8.355 203.144 8.91 203.144 9.855V10.515H201.734C199.559 10.515 198.404 11.31 198.404 12.855C198.404 14.265 199.319 15.18 200.924 15.18C202.064 15.18 202.904 14.67 203.204 13.695H203.279C203.384 14.46 203.834 15 204.689 15H205.604ZM201.389 13.935C200.579 13.935 200.069 13.575 200.069 12.885V12.615C200.069 11.94 200.624 11.565 201.764 11.565H203.144V12.69C203.144 13.455 202.394 13.935 201.389 13.935ZM210.747 15V13.665H209.232V8.535H210.867V7.2H209.232V5.07H207.762V6.435C207.762 6.975 207.582 7.2 207.042 7.2H206.382V8.535H207.597V13.305C207.597 14.37 208.197 15 209.322 15H210.747ZM215.642 15.18C217.097 15.18 218.237 14.55 218.822 13.605L217.862 12.66C217.412 13.38 216.767 13.83 215.807 13.83C214.487 13.83 213.752 12.975 213.752 11.775V11.52H219.107V10.905C219.107 8.745 217.937 7.02 215.642 7.02C213.422 7.02 212.057 8.61 212.057 11.1C212.057 13.59 213.422 15.18 215.642 15.18ZM215.642 8.295C216.722 8.295 217.382 9.09 217.382 10.29V10.44H213.752V10.335C213.752 9.135 214.517 8.295 215.642 8.295ZM230.537 15V13.5H226.277V4.53H224.582V15H230.537ZM235.532 15V13.665H234.017V8.535H235.652V7.2H234.017V5.07H232.547V6.435C232.547 6.975 232.367 7.2 231.827 7.2H231.167V8.535H232.382V13.305C232.382 14.37 232.982 15 234.107 15H235.532ZM242.272 15H243.907V3.9H242.272V8.49H242.197C241.867 7.56 241.042 7.02 240.007 7.02C238.042 7.02 236.902 8.535 236.902 11.1C236.902 13.665 238.042 15.18 240.007 15.18C241.042 15.18 241.867 14.625 242.197 13.71H242.272V15ZM240.502 13.77C239.377 13.77 238.627 12.975 238.627 11.775V10.425C238.627 9.225 239.377 8.43 240.502 8.43C241.492 8.43 242.272 8.97 242.272 9.765V12.435C242.272 13.23 241.492 13.77 240.502 13.77ZM247.249 15.18C247.984 15.18 248.344 14.745 248.344 14.16V13.935C248.344 13.35 247.984 12.915 247.249 12.915C246.514 12.915 246.154 13.35 246.154 13.935V14.16C246.154 14.745 246.514 15.18 247.249 15.18Z" fill="black"/>
<g clip-path="url(#clip1_1_931)">
<path d="M11.6667 5.00008V3.33341H8.33342V5.00008H11.6667ZM3.33341 6.66675V15.8334H16.6667V6.66675H3.33341ZM16.6667 5.00008C17.5917 5.00008 18.3334 5.74175 18.3334 6.66675V15.8334C18.3334 16.7584 17.5917 17.5001 16.6667 17.5001H3.33341C2.40841 17.5001 1.66675 16.7584 1.66675 15.8334L1.67508 6.66675C1.67508 5.74175 2.40841 5.00008 3.33341 5.00008H6.66675V3.33341C6.66675 2.40841 7.40841 1.66675 8.33342 1.66675H11.6667C12.5917 1.66675 13.3334 2.40841 13.3334 3.33341V5.00008H16.6667Z" fill="black"/>
</g>
<defs>
<clipPath id="clip0_1_931">
<rect width="20" height="20" fill="white" transform="translate(290)"/>
</clipPath>
<clipPath id="clip1_1_931">
<rect width="20" height="20" fill="white"/>
</clipPath>
</defs>
</svg>

<svg xmlns="http://www.w3.org/2000/svg" width="399" height="20" fill="none"><g fill="#000" clip-path="url(#a)"><path d="M300 1.667a5.829 5.829 0 0 0-5.833 5.833c0 4.375 5.833 10.833 5.833 10.833s5.833-6.458 5.833-10.833A5.829 5.829 0 0 0 300 1.667ZM295.833 7.5c0-2.3 1.867-4.167 4.167-4.167s4.167 1.867 4.167 4.167c0 2.4-2.4 5.992-4.167 8.233-1.733-2.225-4.167-5.858-4.167-8.233Z"/><path d="M300 9.583a2.083 2.083 0 1 0 0-4.165 2.083 2.083 0 0 0 0 4.165Z"/></g><path fill="#000" d="M321.53 15h1.89V4.53h-1.62v8.01h-.045l-1.155-2.22-3.42-5.79h-1.89V15h1.62V6.99h.045l1.155 2.22 3.42 5.79Zm7.408.18c2.175 0 3.585-1.59 3.585-4.08s-1.41-4.08-3.585-4.08-3.585 1.59-3.585 4.08 1.41 4.08 3.585 4.08Zm0-1.35c-1.11 0-1.86-.69-1.86-2.07v-1.32c0-1.38.75-2.07 1.86-2.07s1.86.69 1.86 2.07v1.32c0 1.38-.75 2.07-1.86 2.07Zm6.232-8.025c.675 0 .96-.36.96-.855v-.255c0-.495-.285-.855-.96-.855s-.975.36-.975.855v.255c0 .495.3.855.975.855ZM334.345 15h1.635V7.2h-1.635V15Zm8.875 0h1.635V3.9h-1.635v4.59h-.075c-.33-.93-1.155-1.47-2.19-1.47-1.965 0-3.105 1.515-3.105 4.08 0 2.565 1.14 4.08 3.105 4.08 1.035 0 1.86-.555 2.19-1.47h.075V15Zm-1.77-1.23c-1.125 0-1.875-.795-1.875-1.995v-1.35c0-1.2.75-1.995 1.875-1.995.99 0 1.77.54 1.77 1.335v2.67c0 .795-.78 1.335-1.77 1.335ZM353.821 15v-1.335h-.825V9.75c0-1.74-1.125-2.73-3.135-2.73-1.515 0-2.43.645-2.94 1.515l.975.885c.39-.615.945-1.065 1.86-1.065 1.095 0 1.605.555 1.605 1.5v.66h-1.41c-2.175 0-3.33.795-3.33 2.34 0 1.41.915 2.325 2.52 2.325 1.14 0 1.98-.51 2.28-1.485h.075c.105.765.555 1.305 1.41 1.305h.915Zm-4.215-1.065c-.81 0-1.32-.36-1.32-1.05v-.27c0-.675.555-1.05 1.695-1.05h1.38v1.125c0 .765-.75 1.245-1.755 1.245Zm6.969-1.02c-.735 0-1.095.42-1.095 1.02v.24c0 .48.255.855.78.96-.21.735-.63 1.29-1.275 1.935h1.215c.9-.735 1.47-1.92 1.47-2.895v-.24c0-.6-.36-1.02-1.095-1.02ZM367.696 15v-1.38h-1.44V5.91h1.44V4.53h-4.56v1.38h1.425v7.71h-1.425V15h4.56Zm3.645 0V9.78c0-.915.84-1.35 1.695-1.35 1.005 0 1.47.615 1.47 1.83V15h1.635v-4.95c0-1.92-.945-3.03-2.535-3.03-1.2 0-1.86.63-2.19 1.47h-.075V7.2h-1.635V15h1.635Zm11.971 0h1.635V3.9h-1.635v4.59h-.075c-.33-.93-1.155-1.47-2.19-1.47-1.965 0-3.105 1.515-3.105 4.08 0 2.565 1.14 4.08 3.105 4.08 1.035 0 1.86-.555 2.19-1.47h.075V15Zm-1.77-1.23c-1.125 0-1.875-.795-1.875-1.995v-1.35c0-1.2.75-1.995 1.875-1.995.99 0 1.77.54 1.77 1.335v2.67c0 .795-.78 1.335-1.77 1.335Zm6.567-7.965c.675 0 .96-.36.96-.855v-.255c0-.495-.285-.855-.96-.855s-.975.36-.975.855v.255c0 .495.3.855.975.855ZM387.284 15h1.635V7.2h-1.635V15Zm10.6 0v-1.335h-.825V9.75c0-1.74-1.125-2.73-3.135-2.73-1.515 0-2.43.645-2.94 1.515l.975.885c.39-.615.945-1.065 1.86-1.065 1.095 0 1.605.555 1.605 1.5v.66h-1.41c-2.175 0-3.33.795-3.33 2.34 0 1.41.915 2.325 2.52 2.325 1.14 0 1.98-.51 2.28-1.485h.075c.105.765.555 1.305 1.41 1.305h.915Zm-4.215-1.065c-.81 0-1.32-.36-1.32-1.05v-.27c0-.675.555-1.05 1.695-1.05h1.38v1.125c0 .765-.75 1.245-1.755 1.245ZM29.4 15v-1.38h-1.44V5.91h1.44V4.53h-4.56v1.38h1.425v7.71H24.84V15h4.56Zm3.645 0V9.78c0-.915.84-1.35 1.695-1.35 1.005 0 1.47.615 1.47 1.83V15h1.635v-4.95c0-1.92-.945-3.03-2.535-3.03-1.2 0-1.86.63-2.19 1.47h-.075V7.2H31.41V15h1.635Zm8.701 0V9.78c0-.915.84-1.35 1.695-1.35 1.005 0 1.47.615 1.47 1.83V15h1.635v-4.95c0-1.92-.945-3.03-2.535-3.03-1.2 0-1.86.63-2.19 1.47h-.075V7.2h-1.635V15h1.635Zm10.127.18c2.175 0 3.585-1.59 3.585-4.08s-1.41-4.08-3.585-4.08-3.585 1.59-3.585 4.08 1.41 4.08 3.585 4.08Zm0-1.35c-1.11 0-1.86-.69-1.86-2.07v-1.32c0-1.38.75-2.07 1.86-2.07s1.86.69 1.86 2.07v1.32c0 1.38-.75 2.07-1.86 2.07ZM60.777 15l2.685-7.8h-1.56l-1.215 3.555-.795 2.73h-.09l-.795-2.73L57.822 7.2h-1.62l2.655 7.8h1.92Zm10.56 0v-1.335h-.826V9.75c0-1.74-1.125-2.73-3.135-2.73-1.515 0-2.43.645-2.94 1.515l.975.885c.39-.615.945-1.065 1.86-1.065 1.095 0 1.605.555 1.605 1.5v.66h-1.41c-2.175 0-3.33.795-3.33 2.34 0 1.41.915 2.325 2.52 2.325 1.14 0 1.98-.51 2.28-1.485h.075c.105.765.555 1.305 1.41 1.305h.915Zm-4.216-1.065c-.81 0-1.32-.36-1.32-1.05v-.27c0-.675.555-1.05 1.695-1.05h1.38v1.125c0 .765-.75 1.245-1.755 1.245Zm8.833 1.245c1.5 0 2.565-.705 3.075-1.98l-1.245-.66c-.33.78-.885 1.29-1.83 1.29-1.2 0-1.815-.825-1.815-2.025V10.41c0-1.2.615-2.025 1.815-2.025.885 0 1.44.465 1.665 1.185l1.35-.63c-.465-1.155-1.455-1.92-3.015-1.92-2.25 0-3.54 1.59-3.54 4.08s1.29 4.08 3.54 4.08Zm7.558 0c1.5 0 2.565-.705 3.075-1.98l-1.245-.66c-.33.78-.885 1.29-1.83 1.29-1.2 0-1.815-.825-1.815-2.025V10.41c0-1.2.615-2.025 1.815-2.025.885 0 1.44.465 1.665 1.185l1.35-.63c-.465-1.155-1.455-1.92-3.015-1.92-2.25 0-3.54 1.59-3.54 4.08s1.29 4.08 3.54 4.08Zm7.604 0c1.455 0 2.595-.63 3.18-1.575l-.96-.945c-.45.72-1.095 1.17-2.055 1.17-1.32 0-2.055-.855-2.055-2.055v-.255h5.355v-.615c0-2.16-1.17-3.885-3.465-3.885-2.22 0-3.585 1.59-3.585 4.08s1.365 4.08 3.585 4.08Zm0-6.885c1.08 0 1.74.795 1.74 1.995v.15h-3.63v-.105c0-1.2.765-2.04 1.89-2.04ZM98.026 15v-4.98c0-.81.72-1.245 2.01-1.245h.645V7.2h-.435c-1.245 0-1.92.705-2.145 1.5h-.075V7.2H96.39V15h1.635Zm16.082 0-3.57-10.47h-2.13L104.838 15h1.725l.915-2.835h3.915l.945 2.835h1.77Zm-3.135-4.29h-3.09l1.515-4.62h.075l1.5 4.62Zm6.271 4.29V9.78c0-.915.84-1.35 1.695-1.35 1.005 0 1.47.615 1.47 1.83V15h1.635v-4.95c0-1.92-.945-3.03-2.535-3.03-1.2 0-1.86.63-2.19 1.47h-.075V7.2h-1.635V15h1.635Zm13.697 0v-1.335h-.825V9.75c0-1.74-1.125-2.73-3.135-2.73-1.515 0-2.43.645-2.94 1.515l.975.885c.39-.615.945-1.065 1.86-1.065 1.095 0 1.605.555 1.605 1.5v.66h-1.41c-2.175 0-3.33.795-3.33 2.34 0 1.41.915 2.325 2.52 2.325 1.14 0 1.98-.51 2.28-1.485h.075c.105.765.555 1.305 1.41 1.305h.915Zm-4.215-1.065c-.81 0-1.32-.36-1.32-1.05v-.27c0-.675.555-1.05 1.695-1.05h1.38v1.125c0 .765-.75 1.245-1.755 1.245ZM135.258 15v-1.335h-1.08V3.9h-1.635v9.48c0 1.005.555 1.62 1.665 1.62h1.05Zm4.67-3.21-.495 1.695h-.075l-.45-1.695-1.56-4.59h-1.635l2.835 8.145-.45 1.32h-1.32V18h.945c1.215 0 1.68-.405 2.055-1.455l3.285-9.345h-1.575l-1.56 4.59Zm8.065 3.21v-1.335h-1.515v-5.13h1.635V7.2h-1.635V5.07h-1.47v1.365c0 .54-.18.765-.72.765h-.66v1.335h1.215v4.77c0 1.065.6 1.695 1.725 1.695h1.425Zm2.719-9.195c.675 0 .96-.36.96-.855v-.255c0-.495-.285-.855-.96-.855s-.975.36-.975.855v.255c0 .495.3.855.975.855ZM149.887 15h1.635V7.2h-1.635V15Zm6.985.18c1.5 0 2.565-.705 3.075-1.98l-1.245-.66c-.33.78-.885 1.29-1.83 1.29-1.2 0-1.815-.825-1.815-2.025V10.41c0-1.2.615-2.025 1.815-2.025.885 0 1.44.465 1.665 1.185l1.35-.63c-.465-1.155-1.455-1.92-3.015-1.92-2.25 0-3.54 1.59-3.54 4.08s1.29 4.08 3.54 4.08Zm7.106 0c1.875 0 3.09-1.005 3.09-2.505 0-1.26-.765-2.01-2.475-2.265l-.72-.09c-.825-.135-1.2-.405-1.2-1.005 0-.585.42-.975 1.32-.975.84 0 1.5.405 1.905.885l1.005-.96c-.705-.78-1.5-1.245-2.91-1.245-1.71 0-2.895.885-2.895 2.4 0 1.44.975 2.13 2.565 2.325l.72.09c.81.105 1.11.48 1.11.975 0 .66-.48 1.05-1.425 1.05-.93 0-1.635-.42-2.205-1.11l-1.05.96c.735.915 1.695 1.47 3.165 1.47Zm10.297-.18v-4.17h2.805c1.92 0 3.045-1.245 3.045-3.15 0-1.905-1.125-3.15-3.045-3.15h-4.5V15h1.695Zm0-8.985h2.7c.855 0 1.365.465 1.365 1.305v.72c0 .84-.51 1.305-1.365 1.305h-2.7v-3.33ZM183.353 15v-4.98c0-.81.72-1.245 2.01-1.245h.645V7.2h-.435c-1.245 0-1.92.705-2.145 1.5h-.075V7.2h-1.635V15h1.635Zm4.932-9.195c.675 0 .96-.36.96-.855v-.255c0-.495-.285-.855-.96-.855s-.975.36-.975.855v.255c0 .495.3.855.975.855ZM187.46 15h1.635V7.2h-1.635V15Zm7.585 0 2.685-7.8h-1.56l-1.215 3.555-.795 2.73h-.09l-.795-2.73L192.09 7.2h-1.62l2.655 7.8h1.92Zm10.559 0v-1.335h-.825V9.75c0-1.74-1.125-2.73-3.135-2.73-1.515 0-2.43.645-2.94 1.515l.975.885c.39-.615.945-1.065 1.86-1.065 1.095 0 1.605.555 1.605 1.5v.66h-1.41c-2.175 0-3.33.795-3.33 2.34 0 1.41.915 2.325 2.52 2.325 1.14 0 1.98-.51 2.28-1.485h.075c.105.765.555 1.305 1.41 1.305h.915Zm-4.215-1.065c-.81 0-1.32-.36-1.32-1.05v-.27c0-.675.555-1.05 1.695-1.05h1.38v1.125c0 .765-.75 1.245-1.755 1.245ZM210.747 15v-1.335h-1.515v-5.13h1.635V7.2h-1.635V5.07h-1.47v1.365c0 .54-.18.765-.72.765h-.66v1.335h1.215v4.77c0 1.065.6 1.695 1.725 1.695h1.425Zm4.895.18c1.455 0 2.595-.63 3.18-1.575l-.96-.945c-.45.72-1.095 1.17-2.055 1.17-1.32 0-2.055-.855-2.055-2.055v-.255h5.355v-.615c0-2.16-1.17-3.885-3.465-3.885-2.22 0-3.585 1.59-3.585 4.08s1.365 4.08 3.585 4.08Zm0-6.885c1.08 0 1.74.795 1.74 1.995v.15h-3.63v-.105c0-1.2.765-2.04 1.89-2.04ZM230.537 15v-1.5h-4.26V4.53h-1.695V15h5.955Zm4.995 0v-1.335h-1.515v-5.13h1.635V7.2h-1.635V5.07h-1.47v1.365c0 .54-.18.765-.72.765h-.66v1.335h1.215v4.77c0 1.065.6 1.695 1.725 1.695h1.425Zm6.74 0h1.635V3.9h-1.635v4.59h-.075c-.33-.93-1.155-1.47-2.19-1.47-1.965 0-3.105 1.515-3.105 4.08 0 2.565 1.14 4.08 3.105 4.08 1.035 0 1.86-.555 2.19-1.47h.075V15Zm-1.77-1.23c-1.125 0-1.875-.795-1.875-1.995v-1.35c0-1.2.75-1.995 1.875-1.995.99 0 1.77.54 1.77 1.335v2.67c0 .795-.78 1.335-1.77 1.335Zm6.747 1.41c.735 0 1.095-.435 1.095-1.02v-.225c0-.585-.36-1.02-1.095-1.02s-1.095.435-1.095 1.02v.225c0 .585.36 1.02 1.095 1.02Z"/><g clip-path="url(#b)"><path fill="#000" d="M11.667 5V3.333H8.333V5h3.334ZM3.333 6.667v9.166h13.334V6.667H3.333ZM16.667 5a1.66 1.66 0 0 1 1.666 1.667v9.166c0 .925-.741 1.667-1.666 1.667H3.333a1.66 1.66 0 0 1-1.666-1.667l.008-9.166C1.675 5.742 2.408 5 3.333 5h3.334V3.333a1.66 1.66 0 0 1 1.666-1.666h3.334a1.66 1.66 0 0 1 1.666 1.666V5h3.334Z"/></g><defs><clipPath id="a"><path fill="#fff" d="M290 0h20v20h-20z"/></clipPath><clipPath id="b"><path fill="#fff" d="M0 0h20v20H0z"/></clipPath></defs></svg>
